brandFactory_export/1.Light/Sin conexion_1Light.svg

<?xml version="1.0" encoding="UTF-8"?>
<svg width="24px" height="24px" viewBox="0 0 24 24" version="1.1" xmlns="http://www.w3.org/2000/svg" xmlns:xlink="http://www.w3.org/1999/xlink">
    <title>1.Light/Sin conexion_1Light</title>
    <g id="Symbols" stroke="none" stroke-width="1" fill="none" fill-rule="evenodd">
        <g id="1.Light/Sin-conexion_1Light" fill="#5CB615" fill-rule="nonzero">
            <path d="M21.3613445,21.3210084 C22.2218487,20.4201681 22.6521008,19.5159664 22.6386555,18.6386555 C22.6218487,17.794958 22.1915966,16.9445378 21.3613445,16.1142857 C21.0487395,15.794958 20.6957983,15.5159664 20.312605,15.287395 C19.6033613,14.8504202 18.897479,14.692437 18.1882353,14.810084 C17.4621849,14.9344538 16.7428571,15.3512605 16.0436975,16.0470588 C15.8756303,16.2151261 15.7176471,16.389916 15.5697479,16.5781513 C15.5294118,16.6285714 15.4823529,16.6689076 15.4252101,16.6991597 C15.0218487,16.9243697 14.3798319,16.7327731 13.4655462,16.1042017 C12.4134454,15.3815126 11.1966387,14.2016807 10.3731092,13.3781513 L10.2756303,13.2840336 C9.45210084,12.4605042 8.27226891,11.2470588 7.54957983,10.1915966 C6.92436975,9.28067227 6.72941176,8.64201681 6.95462185,8.23529412 C6.98487395,8.17815126 7.02857143,8.12773109 7.0789916,8.08739496 C7.29747899,7.91260504 7.42521008,7.79831933 7.61008403,7.61680672 C8.3092437,6.91764706 8.72605042,6.19495798 8.85042017,5.47226891 C8.97142857,4.76638655 8.81344538,4.05714286 8.37983193,3.36134454 C8.14789916,2.97142857 7.86890756,2.61512605 7.54285714,2.29915966 C6.71260504,1.46554622 5.86218487,1.03529412 5.01848739,1.02184874 C4.16470588,1.00168067 3.24033613,1.43529412 2.33613445,2.29915966 C2.06386555,2.57142857 1.81848739,2.87058824 1.59663866,3.18655462 C0.746218487,4.41344538 0.789915966,6.30588235 1.68403361,8.55462185 C2.66218487,11.0084034 4.57815126,13.7008403 7.22016807,16.3428571 L7.22352941,16.3462185 L7.30756303,16.4302521 C9.95630252,19.0789916 12.6487395,20.9915966 15.102521,21.9697479 C17.3344538,22.8605042 19.2537815,22.9008403 20.4302521,22.087395 C20.8571429,21.7815126 21.1563025,21.5327731 21.3613445,21.3210084 L21.3613445,21.3210084 Z M22.0571429,15.4151261 C23.0756303,16.4302521 23.6033613,17.5092437 23.6235294,18.6184874 C23.6436975,19.7647059 23.1226891,20.9008403 22.0739496,22 C21.7579832,22.3159664 21.4151261,22.6016807 21.0487395,22.8571429 C20.2655462,23.4016807 19.3579832,23.6537815 18.292437,23.6537815 C17.2201681,23.6537815 16.0268908,23.394958 14.7394958,22.8806723 C12.1647059,21.8588235 9.35462185,19.8655462 6.62184874,17.1327731 L6.53781513,17.0487395 C6.52436975,17.0352941 6.51092437,17.0184874 6.49747899,17.005042 C3.78823529,14.2991597 1.79831933,11.492437 0.769747899,8.91428571 C-0.25210084,6.34957983 -0.255462185,4.13109244 0.756302521,2.66554622 L0.826890756,2.57142857 C0.914285714,2.44705882 1.27058824,1.95294118 1.65378151,1.58319328 C2.75630252,0.534453782 3.88235294,0.0201680672 5.03865546,0.0336134454 C6.14453782,0.0537815126 7.22352941,0.581512605 8.24201681,1.6 C8.64537815,2.00672269 8.97815126,2.42689076 9.22689076,2.85378151 C9.77815126,3.74789916 9.98319328,4.68907563 9.82184874,5.63697479 C9.66386555,6.56470588 9.15294118,7.46890756 8.3092437,8.31260504 C8.1512605,8.47058824 8.0302521,8.58151261 7.87563025,8.71260504 C7.91596639,8.85378151 8.0302521,9.14285714 8.36638655,9.63361345 C9.04201681,10.6184874 10.1815126,11.7882353 10.9747899,12.5848739 L11.0722689,12.6789916 C11.8689076,13.4756303 13.0420168,14.6117647 14.0235294,15.2907563 C14.5176471,15.6268908 14.8067227,15.7445378 14.9445378,15.7815126 C15.0756303,15.6268908 15.189916,15.5058824 15.3478992,15.3478992 C16.1915966,14.5008403 17.092437,13.9932773 18.0235294,13.8352941 C18.9747899,13.6773109 19.912605,13.8756303 20.8201681,14.4403361 C21.2302521,14.6789916 21.6537815,15.0117647 22.0571429,15.4151261 L22.0571429,15.4151261 Z M17.6672269,1.08571429 C14.3462185,1.08571429 12.7327731,2.69915966 12.7327731,6.02352941 C12.7327731,9.38823529 14.2991597,10.9579832 17.6672269,10.9579832 C20.9882353,10.9579832 22.605042,9.34453782 22.605042,6.02352941 C22.605042,2.69915966 20.9882353,1.08571429 17.6672269,1.08571429 Z M17.6672269,11.9428571 C13.9260504,11.9428571 11.7478992,10.0571429 11.7478992,6.02352941 C11.7478992,1.98991597 13.9260504,0.100840336 17.6672269,0.100840336 C21.4084034,0.100840336 23.589916,1.98991597 23.589916,6.02352941 C23.589916,10.0537815 21.4084034,11.9394958 17.6672269,11.9428571 L17.6672269,11.9428571 Z M15.3042017,8.37983193 C15.112605,8.18823529 15.112605,7.87563025 15.3042017,7.68403361 L16.9680672,6.02016807 L15.3042017,4.35630252 C15.112605,4.16470588 15.112605,3.85210084 15.3042017,3.6605042 C15.4957983,3.46890756 15.8084034,3.46890756 16,3.6605042 L17.6638655,5.32436975 L19.3344538,3.65378151 C19.5260504,3.46218487 19.8386555,3.46218487 20.0302521,3.65378151 C20.2218487,3.84537815 20.2218487,4.15798319 20.0302521,4.34957983 L18.3596639,6.02016807 L20.0268908,7.6907563 C20.2184874,7.88235294 20.2184874,8.19495798 20.0268908,8.38655462 C19.8352941,8.57815126 19.5226891,8.57815126 19.3310924,8.38655462 L17.6605042,6.71596639 L16,8.37983193 C15.8084034,8.57142857 15.4991597,8.57478992 15.307563,8.38319328 C15.307563,8.38319328 15.3042017,8.38319328 15.3042017,8.37983193 Z" id="Sin-conexion_1Light"></path>
        </g>
    </g>
</svg>

<svg width="24" height="24" viewBox="0 0 24 24" xmlns="http://www.w3.org/2000/svg"><path d="M21.361 21.321c.86-.9 1.291-1.805 1.278-2.682-.017-.844-.447-1.694-1.278-2.525a5.193 5.193 0 00-1.048-.827c-.71-.437-1.416-.595-2.125-.477-.726.124-1.445.541-2.144 1.237a5.937 5.937 0 00-.474.531.456.456 0 01-.145.121c-.403.225-1.045.034-1.96-.595-1.052-.722-2.268-1.902-3.092-2.726l-.097-.094c-.824-.823-2.004-2.037-2.726-3.092-.626-.911-.82-1.55-.595-1.957a.48.48 0 01.124-.148c.218-.174.346-.289.531-.47.7-.7 1.116-1.422 1.24-2.145.121-.706-.037-1.415-.47-2.11a5.115 5.115 0 00-.837-1.063c-.83-.833-1.68-1.264-2.525-1.277-.853-.02-1.778.413-2.682 1.277a6.68 6.68 0 00-.74.888c-.85 1.226-.806 3.119.088 5.368.978 2.453 2.894 5.146 5.536 7.788l.004.003.084.084c2.648 2.649 5.34 4.562 7.795 5.54 2.231.89 4.15.93 5.327.117.427-.305.726-.554.931-.766zm.696-5.906c1.019 1.015 1.546 2.094 1.567 3.203.02 1.147-.501 2.283-1.55 3.382a7.573 7.573 0 01-1.025.857c-.783.545-1.691.797-2.757.797-1.072 0-2.265-.259-3.553-.773-2.574-1.022-5.384-3.015-8.117-5.748l-.084-.084-.04-.044c-2.71-2.706-4.7-5.513-5.728-8.09C-.252 6.35-.255 4.13.756 2.664l.07-.094c.088-.124.445-.618.828-.988C2.756.534 3.882.02 5.039.033 6.145.054 7.224.583 8.242 1.6c.403.407.736.827.985 1.254.551.894.756 1.835.595 2.783-.158.928-.67 1.832-1.513 2.676a6.633 6.633 0 01-.433.4c.04.14.154.43.49.92.676.985 1.816 2.155 2.609 2.952l.097.094c.797.797 1.97 1.933 2.952 2.612.494.336.783.454.92.49.132-.154.246-.275.404-.433.844-.847 1.744-1.355 2.676-1.513.95-.158 1.889.04 2.796.605.41.239.834.572 1.237.975zm-4.39-14.33c-3.32 0-4.934 1.614-4.934 4.939 0 3.364 1.566 4.934 4.934 4.934 3.321 0 4.938-1.613 4.938-4.934 0-3.325-1.617-4.938-4.938-4.938zm0 10.858c-3.74 0-5.92-1.886-5.92-5.92 0-4.033 2.18-5.922 5.92-5.922 3.741 0 5.923 1.889 5.923 5.923 0 4.03-2.182 5.915-5.923 5.919zM15.304 8.38a.493.493 0 010-.696l1.664-1.664-1.664-1.664A.493.493 0 0116 3.661l1.664 1.663 1.67-1.67a.493.493 0 01.696.696l-1.67 1.67 1.667 1.67a.493.493 0 01-.696.697l-1.67-1.671L16 8.38a.489.489 0 01-.692.003s-.004 0-.004-.003z" fill="#5CB615" fill-rule="nonzero"/></svg>
